X:1
T:Title
%%score { ( 1 3 ) | 2 }
L:1/8
M:4/4
K:D
V:1 treble nm="Grand Piano"
V:3 treble 
V:2 bass 
V:1
 z4 z2[Q:1/4=100] [FA]2 | [DF]2 [FA]2 [Fd]2 [FA]2 | [GB]2 [GB]2 [FA]2 [DF]2 | %3
 [FA]2 [EG]2 E2 [EG]2 |[M:3/4] [DF]4 [FA]2 |[M:1/4] [FA]2 |[M:4/4] [DF]2 [FA]2 [Fd]2 [FA]2 | %7
 [GB]2 [GB]2 [FA]2 [DF]2 | [FA]2 [DF]2 [EG]2 [CE]2 |[M:7/8][K:bass] [G,CE]- [G,CE]3 [F,D]3 | %10
[M:1/4][K:treble] [DFA]2 |[M:4/4] [DGB]2 [DGB]2 [DAc]2 [DGB]2 | [DFA]2 [Fd]2 [Fd]2 [FA]2 | %13
 B2 A2 G2 F2 |[M:7/8] [A,CE]2 [CEA]2 [CEA]3 |[M:1/4] [A,EG]2 |[M:4/4] [A,DF]2 [DFA]2 [Fd]2 [Fd]2 | %17
[M:9/8] e2 B- B B2- B d2 |[M:4/4] A2 B2 [DFA]2[K:bass] [F,D]2 |[M:7/8] [G,CE]- [G,CE]3 [F,D]3 | %20
[M:1/4][K:treble] [A,FA]2 |[M:4/4] [FA]6 z2 | [Gd]6 z2 | [FA]2 [GB]2 [FA]2 F2 |[M:7/8] F- F3 E3 | %25
[M:1/4] [EG]2 |[M:4/4] [DF]2 [EG]2 [FA]2 [Ad]2 | %27
[M:9/8] [Ac]2 B- B B2- B d2[Q:1/4=98][Q:1/4=97][Q:1/4=95][Q:1/4=94][Q:1/4=92][Q:1/4=91] | %28
[M:4/4] A2 B2 [DFA]2[K:bass] [F,D]2[Q:1/4=89][Q:1/4=88][Q:1/4=86][Q:1/4=84][Q:1/4=83][Q:1/4=81][Q:1/4=80][Q:1/4=78][Q:1/4=77] | %29
[M:7/8] [G,CE]- [G,CE]3 [F,D]3 |] %30
V:2
 z4 z2 [D,D]2 | [D,A,]2 [D,A,]2 [D,A,]2 [D,D]2 | [G,D]2 [G,D]2 [D,D]2 [D,A,]2 | %3
 [A,,A,]2 [A,,A,]2 [A,,A,]2 [A,,A,]2 |[M:3/4] [D,A,]4 [D,D]2 |[M:1/4] [D,D]2 | %6
[M:4/4] [D,A,]2 [D,A,]2 [D,A,]2 [D,D]2 | [G,D]2 [G,D]2 [D,D]2 [D,A,]2 | %8
 [A,,A,]2 [A,,A,]2 [A,,A,]2 [A,,A,]2 |[M:7/8] A,,- A,,3 D,3 |[M:1/4] D,2 |[M:4/4] G,2 G,2 G,2 G,2 | %12
 D,2 [D,A,]2 [D,A,]2 [D,D]2 | [G,DG]2 [F,A,D]2 [E,A,C]2 [D,A,D]2 |[M:7/8] A,,2 A,,2 A,,3 | %15
[M:1/4] A,,2 |[M:4/4] D,2 D,2 [D,A,]2 [D,A,]2 | %17
[M:9/8][K:treble] [G,B,G]2 [G,DG]- [G,DG] [G,DG]2- [G,DG] [^G,B,=F]2 | %18
[M:4/4] [A,DF]2 [A,DG]2[K:bass] A,,2 A,,2 |[M:7/8] A,,- A,,3 D,3 |[M:1/4] D,2 | %21
[M:4/4] D,2 F,2 A,2 [D,A,]2 | [G,B,]2 B,2 B,2 [G,DG]2 | [D,D]2 [D,D]2 [D,D]2 [F,A,D]2 | %24
[M:7/8] [A,D]- [A,D]3 [A,C]3 |[M:1/4] [A,,A,]2 |[M:4/4] [D,A,]2 [D,A,]2 [D,D]2 [D,D]2 | %27
[M:9/8][K:treble] [G,D]2 [G,DG]- [G,DG] [G,DG]2- [G,DG] [^G,B,=F]2 | %28
[M:4/4] [A,DF]2 [A,DG]2[K:bass] A,,2 A,,2 |[M:7/8] A,,- A,,3 D,3 |] %30
V:3
 x8 | x8 | x8 | x8 |[M:3/4] x6 |[M:1/4] x2 |[M:4/4] x8 | x8 | x8 |[M:7/8][K:bass] x7 | %10
[M:1/4][K:treble] x2 |[M:4/4] x8 | x8 | x8 |[M:7/8] x7 |[M:1/4] x2 |[M:4/4] x8 |[M:9/8] x9 | %18
[M:4/4] x6[K:bass] x2 |[M:7/8] x7 |[M:1/4][K:treble] x2 |[M:4/4] D2 D2 D2 [Fd]2 | z2 D2 D2 B2 | %23
 x8 |[M:7/8] x7 |[M:1/4] x2 |[M:4/4] x8 |[M:9/8] x9 |[M:4/4] x6[K:bass] x2 |[M:7/8] x7 |] %30

